src/symbolic/apps/multimedia-video-player-symbolic.svg

<svg xmlns="http://www.w3.org/2000/svg" width="16" height="16"><path d="M1 1c-.55 0-1 .45-1 1v12c0 .55.45 1 1 1h14c.56 0 1-.45 1-1V1h-3.5L14 4h-2l-1.5-3h-2L10 4H8L6.5 1h-2L6 4H4L2.5 1zm5 6l5 2.5L6 12z" fill="#444"/></svg>

<svg xmlns="http://www.w3.org/2000/svg" width="16" height="16" version="1.1">
 <path style="fill:#444444" d="M 1,1 C 0.45,1 0,1.45 0,2 V 14 C 0,14.55 0.45,15 1,15 H 15 C 15.56,15 16,14.55 16,14 V 2 1 H 12.5 L 14,4 H 12 L 10.5,1 H 8.5 L 10,4 H 8 L 6.5,1 H 4.5 L 6,4 H 4 L 2.5,1 Z M 6,7 11,9.5 6,12 Z"/>
</svg>
